src/components/Icon/utils/svgsOptimized/clock.svg

<svg width="24" height="24" viewBox="0 0 24 24"  xmlns="http://www.w3.org/2000/svg">
<path d="M11.75 5C12.1642 5 12.5 5.33579 12.5 5.75V11H16.75C17.1642 11 17.5 11.3358 17.5 11.75C17.5 12.1642 17.1642 12.5 16.75 12.5H11.75C11.3358 12.5 11 12.1642 11 11.75V5.75C11 5.33579 11.3358 5 11.75 5Z" />
<path fill-rule="evenodd" clip-rule="evenodd" d="M2 11.75C2 6.36579 6.36579 2 11.75 2C17.1342 2 21.5 6.36579 21.5 11.75C21.5 17.1342 17.1342 21.5 11.75 21.5C6.36579 21.5 2 17.1342 2 11.75ZM11.75 3.5C7.19421 3.5 3.5 7.19421 3.5 11.75C3.5 16.3058 7.19421 20 11.75 20C16.3058 20 20 16.3058 20 11.75C20 7.19421 16.3058 3.5 11.75 3.5Z" />
</svg>

<?xml version="1.0" encoding="utf-8"?><svg width="24" height="24" xmlns="http://www.w3.org/2000/svg" viewBox="0 0 24 24"><path d="M11.75 5a.75.75 0 0 1 .75.75V11h4.25a.75.75 0 0 1 0 1.5h-5a.75.75 0 0 1-.75-.75v-6a.75.75 0 0 1 .75-.75Z"/><path fill-rule="evenodd" clip-rule="evenodd" d="M2 11.75C2 6.366 6.366 2 11.75 2s9.75 4.366 9.75 9.75-4.366 9.75-9.75 9.75S2 17.134 2 11.75Zm9.75-8.25a8.25 8.25 0 1 0 .001 16.501A8.25 8.25 0 0 0 11.75 3.5Z"/></svg>
